exports/global-share-of-men-defined-as-underweight-healthy-overweight-and-obese_v2_850x600.svg

<svg xmlns="http://www.w3.org/2000/svg" version="1.1" style="background-color:#fff;-webkit-font-smoothing:antialiased" width="850" height="600" font-family="'Helvetica Neue',Helvetica,Arial,sans-serif" font-size="18" text-rendering="optimizeLegibility"><g class="ChartTab"><g class="HeaderView"><g opacity=".8" transform="matrix(.27 0 0 .27 778 15)"><a xmlns:xlink="http://www.w3.org/1999/xlink" xlink:href="https://ourworldindata.org" target="_blank"><g><path fill="#1B2543" d="M0 0h211.2v130.1H0z"/><path fill="#E63912" d="M0 112.2h211.2v17.9H0z"/><g><path fill="none" d="M1.2 12.3h210.2v99.2H1.2z"/><path fill="#FFF" d="M37.8 32.2c0 12.7-7.7 19.4-17.1 19.4-9.7 0-16.6-7.5-16.6-18.7 0-11.7 7.3-19.3 17.1-19.3 10.1.1 16.6 7.7 16.6 18.6zm-28.6.6c0 7.9 4.3 14.9 11.8 14.9 7.5 0 11.8-6.9 11.8-15.3 0-7.3-3.8-14.9-11.8-14.9-7.9 0-11.8 7.3-11.8 15.3zM62.7 43.8c0 2.7.1 5.1.2 7.2h-4.3l-.3-4.3h-.1c-1.3 2.1-4 4.9-8.8 4.9-4.2 0-9.1-2.3-9.1-11.6V24.6h4.8v14.6c0 5 1.5 8.4 5.9 8.4 3.2 0 5.5-2.2 6.3-4.4.3-.7.4-1.6.4-2.5V24.6h4.8v19.2zM67.3 32.8c0-3.1-.1-5.8-.2-8.2h4.2l.2 5.2h.2c1.2-3.5 4.1-5.8 7.3-5.8.5 0 .9.1 1.4.2v4.5c-.5-.1-1-.2-1.6-.2-3.4 0-5.8 2.6-6.5 6.2-.1.7-.2 1.4-.2 2.2V51h-4.8V32.8zM95.4 51L86 14.2h5l4.4 18.6c1.1 4.6 2.1 9.2 2.7 12.7h.1c.6-3.7 1.8-8 3-12.8l4.9-18.5h5l4.5 18.7c1 4.4 2 8.7 2.6 12.6h.1c.8-4 1.8-8.1 3-12.7l4.9-18.5h4.9L120.6 51h-5L111 31.9c-1.1-4.7-1.9-8.3-2.4-12h-.1c-.7 3.7-1.5 7.3-2.8 12L100.4 51h-5zM154.9 37.6c0 9.8-6.8 14-13.2 14-7.2 0-12.7-5.2-12.7-13.6 0-8.8 5.8-14 13.1-14 7.7 0 12.8 5.5 12.8 13.6zm-21 .3c0 5.8 3.3 10.1 8 10.1 4.6 0 8-4.3 8-10.3 0-4.5-2.2-10.1-7.9-10.1s-8.1 5.2-8.1 10.3zM158.2 32.8c0-3.1-.1-5.8-.2-8.2h4.2l.2 5.2h.2c1.2-3.5 4.1-5.8 7.3-5.8.5 0 .9.1 1.4.2v4.5c-.5-.1-1-.2-1.6-.2-3.4 0-5.8 2.6-6.5 6.2-.1.7-.2 1.4-.2 2.2V51h-4.8V32.8zM173.5 12.3h4.8V51h-4.8V12.3zM206.5 12.3v31.9c0 2.3.1 5 .2 6.8h-4.3l-.2-4.6h-.2c-1.5 2.9-4.7 5.2-9 5.2-6.4 0-11.3-5.4-11.3-13.4-.1-8.8 5.4-14.2 11.9-14.2 4 0 6.8 1.9 8 4h.1V12.3h4.8zm-4.8 23.1c0-.6-.1-1.4-.2-2a7 7 0 00-6.9-5.6c-5 0-7.9 4.4-7.9 10.2 0 5.3 2.6 9.8 7.8 9.8 3.2 0 6.2-2.1 7.1-5.7.2-.7.2-1.3.2-2.1v-4.6zM42.8 64c.1 1.6-1.1 2.9-3.1 2.9-1.7 0-2.9-1.3-2.9-2.9 0-1.7 1.3-3 3-3 1.9 0 3 1.3 3 3zm-5.4 33.8V71.4h4.8v26.4h-4.8zM47.5 78.6c0-2.7-.1-5-.2-7.1h4.3l.3 4.4h.1c1.3-2.5 4.4-5 8.8-5 3.7 0 9.4 2.2 9.4 11.2v15.8h-4.8V82.6c0-4.3-1.6-7.8-6.1-7.8-3.2 0-5.6 2.2-6.5 4.9-.2.6-.3 1.4-.3 2.2v15.9h-4.8V78.6zM84 61.6c2.9-.4 6.3-.8 10.1-.8 6.8 0 11.7 1.6 14.9 4.6 3.3 3 5.2 7.3 5.2 13.2 0 6-1.9 10.9-5.3 14.3-3.4 3.4-9.1 5.3-16.3 5.3-3.4 0-6.2-.2-8.6-.4V61.6zm4.8 32.5c1.2.2 3 .3 4.8.3 10.2 0 15.7-5.7 15.7-15.6.1-8.7-4.9-14.2-14.9-14.2-2.5 0-4.3.2-5.6.5v29zM132.1 97.8l-.4-3.3h-.2a9.79 9.79 0 01-8.1 3.9c-5.4 0-8.1-3.8-8.1-7.6 0-6.4 5.7-9.9 15.9-9.8v-.5c0-2.2-.6-6.1-6-6.1-2.5 0-5 .8-6.9 2l-1.1-3.2c2.2-1.4 5.4-2.3 8.7-2.3 8.1 0 10.1 5.5 10.1 10.8v9.9c0 2.3.1 4.5.4 6.3h-4.3zm-.7-13.4c-5.3-.1-11.2.8-11.2 5.9 0 3.1 2.1 4.6 4.5 4.6 3.4 0 5.6-2.2 6.4-4.4.2-.5.3-1 .3-1.5v-4.6zM146.6 63.9v7.6h6.9v3.7h-6.9v14.2c0 3.3.9 5.1 3.6 5.1 1.3 0 2.2-.2 2.8-.3l.2 3.6c-.9.4-2.4.7-4.3.7-2.2 0-4-.7-5.2-2-1.4-1.4-1.9-3.8-1.9-6.9V75.1h-4.1v-3.7h4.1v-6.3l4.8-1.2zM171.4 97.8l-.4-3.3h-.2a9.79 9.79 0 01-8.1 3.9c-5.4 0-8.1-3.8-8.1-7.6 0-6.4 5.7-9.9 15.9-9.8v-.5c0-2.2-.6-6.1-6-6.1-2.5 0-5 .8-6.9 2l-1.1-3.2c2.2-1.4 5.4-2.3 8.7-2.3 8.1 0 10.1 5.5 10.1 10.8v9.9c0 2.3.1 4.5.4 6.3h-4.3zm-.7-13.4c-5.3-.1-11.2.8-11.2 5.9 0 3.1 2.1 4.6 4.5 4.6 3.4 0 5.6-2.2 6.4-4.4.2-.5.3-1 .3-1.5v-4.6z"/></g></g></a></g><a href="https://ourworldindata.org/grapher/men-weight-categories" target="_blank"><text font-size="21.6" x="15" y="32.3" fill="#555"><tspan x="15" y="32.28">Share of men defined as underweight, healthy, overweight and obese, World</tspan></text></a><text font-size="14.4" x="15" y="50.1" fill="#666"><tspan x="15" y="50.12">Share of men (% of adult population), who are underweight, healthy/normal, overweight or obese based on body</tspan><tspan x="15" y="65.96">mass index (BMI). Body Mass Index (BMI) is a person&apos;s weight divided by his or her height. The WHO define a BMI</tspan><tspan x="15" y="81.8">30.0 as &apos;obese&apos;.</tspan></text></g><g class="StackedArea"><defs><clipPath id="a"><path d="M61.63 0h820v905h-820z"/></clipPath></defs><g class="AxisBoxView"><g class="HorizontalAxis" fill="#666" text-anchor="middle" font-size="16.2"><text x="61.6" y="556.5">1975</text><text x="145.5" y="556.5">1980</text><text x="229.4" y="556.5">1985</text><text x="313.2" y="556.5">1990</text><text x="397.1" y="556.5">1995</text><text x="480.9" y="556.5">2000</text><text x="564.8" y="556.5">2005</text><text x="648.7" y="556.5">2010</text><text x="715.8" y="556.5">2014</text></g><g class="VerticalAxis" fill="#666" dominant-baseline="middle" text-anchor="end" font-size="16.2"><text x="56.63" y="535.3">0%</text><text x="56.63" y="449">20%</text><text x="56.63" y="362.8">40%</text><text x="56.63" y="276.5">60%</text><text x="56.63" y="190.3">80%</text><text x="56.63" y="104">100%</text></g><g class="AxisGridLines"><path stroke="#ccc" d="M61.63 535.3h654.13"/><path stroke="#ddd" stroke-dasharray="3,2" d="M61.63 449h654.13M61.63 362.8h654.13M61.63 276.5h654.13M61.63 190.3h654.13M61.63 104h654.13"/></g></g><g clip-path="url(#a)"><g class="HeightedLegend clickable"><g class="legendMark"><text font-size="13.5" x="720.8" y="127" fill="#7ec7ce"><tspan x="720.76" y="127.05">Underweight</tspan></text></g><g class="legendMark"><text font-size="13.5" x="720.8" y="260.1" fill="#2a939b"><tspan x="720.76" y="260.05">Healthy</tspan></text></g><g class="legendMark"><text font-size="13.5" x="720.8" y="449.4" fill="#3360a9"><tspan x="720.76" y="449.35">Overweight or</tspan><tspan x="720.76" y="464.2">Obese</tspan></text></g></g><g class="Areas"><path d="M61.6 446l16.8-.9 16.8-1.2 16.8-1.4 16.7-1.3 16.8-1.2 16.8-1.3 16.7-1.3 16.8-1.4 16.8-1.6 16.8-1.3 16.7-1.3 16.8-1.7 16.8-1.4 16.7-1.5 16.8-1.5L330 424l16.8-1.3 16.7-1.3 16.8-1.7 16.8-1.7 16.8-1.6 16.7-1.9 16.8-2 16.8-2 16.7-2.3 16.8-2.3 16.8-2.3 16.8-2.4 16.7-2.6 16.8-2.6 16.8-2.9 16.8-2.7 16.7-3 16.8-3.1 16.8-3 16.7-2.7 16.8-2.9 16.8-3 16.8-2.8-.04 165.4H61.63" fill="#3360a9" fill-opacity=".7" class="World_2-area"/><path d="M61.6 163.5l16.8-.4 16.8-.4 16.8-.4 16.7-.4 16.8-.1 16.8-.4 16.7-.5 16.8-.3 16.8-.5h16.8l16.7-.5 16.8-.4 16.8-.4 16.7-.1 16.8-.4 16.8-.4 16.8-.4 16.7-.5 16.8-.4 16.8-.4 16.8-.5 16.7-.8 16.8-.5 16.8-.8 16.7-.5 16.8-.8 16.8-.8 16.8-.9 16.7-.5 16.8-.8 16.8-.9 16.8-.8 16.7-.9 16.8-.9 16.8-.8 16.7-.8 16.8-.5 16.8-.9 16.8-.8v227.9l-16.8 2.8-16.8 3-16.8 2.9-16.7 2.7-16.8 3-16.8 3.1-16.7 3-16.8 2.7-16.8 2.9-16.8 2.6-16.7 2.6-16.8 2.4-16.8 2.3-16.8 2.3-16.7 2.3-16.8 2-16.8 2-16.7 1.9-16.8 1.6-16.8 1.7-16.8 1.7-16.7 1.3L330 424l-16.8 1.7-16.8 1.5-16.7 1.5-16.8 1.4-16.8 1.7-16.7 1.3-16.8 1.3-16.8 1.6-16.8 1.4-16.7 1.3-16.8 1.3-16.8 1.2-16.7 1.3-16.8 1.4-16.8 1.2-16.8.9" fill="#2a939b" fill-opacity=".7" class="World_1-area"/><path d="M61.6 104H715.8v38l-16.8.8-16.8.9-16.8.5-16.7.8-16.8.8-16.8.9-16.7.9-16.8.8-16.8.9-16.8.8-16.7.5-16.8.9-16.8.8-16.8.8-16.7.5-16.8.8-16.8.5-16.7.8-16.8.5-16.8.4-16.8.4-16.7.5-16.8.4-16.8.4-16.8.4-16.7.1-16.8.4-16.8.4-16.7.5h-16.8l-16.8.5-16.8.3-16.7.5-16.8.4-16.8.1-16.7.4-16.8.4-16.8.4-16.8.4" fill="#7ec7ce" fill-opacity=".7" class="World_0-area"/><path stroke-linecap="round" d="M61.6 446l16.8-.9 16.8-1.2 16.8-1.4 16.7-1.3 16.8-1.2 16.8-1.3 16.7-1.3 16.8-1.4 16.8-1.6 16.8-1.3 16.7-1.3 16.8-1.7 16.8-1.4 16.7-1.5 16.8-1.5L330 424l16.8-1.3 16.7-1.3 16.8-1.7 16.8-1.7 16.8-1.6 16.7-1.9 16.8-2 16.8-2 16.7-2.3 16.8-2.3 16.8-2.3 16.8-2.4 16.7-2.6 16.8-2.6 16.8-2.9 16.8-2.7 16.7-3 16.8-3.1 16.8-3 16.7-2.7 16.8-2.9 16.8-3 16.8-2.8" stroke="#2B508D" stroke-opacity=".7" stroke-width=".5" fill="none" class="World_2-border"/><path stroke-linecap="round" d="M61.6 163.5l16.8-.4 16.8-.4 16.8-.4 16.7-.4 16.8-.1 16.8-.4 16.7-.5 16.8-.3 16.8-.5h16.8l16.7-.5 16.8-.4 16.8-.4 16.7-.1 16.8-.4 16.8-.4 16.8-.4 16.7-.5 16.8-.4 16.8-.4 16.8-.5 16.7-.8 16.8-.5 16.8-.8 16.7-.5 16.8-.8 16.8-.8 16.8-.9 16.7-.5 16.8-.8 16.8-.9 16.8-.8 16.7-.9 16.8-.9 16.8-.8 16.7-.8 16.8-.5 16.8-.9 16.8-.8" stroke="#237B82" stroke-opacity=".7" stroke-width=".5" fill="none" class="World_1-border"/><path stroke-linecap="round" d="M61.6 104H715.8" stroke="#69A6AC" stroke-opacity=".7" stroke-width=".5" fill="none" class="World_0-border"/></g></g></g><g class="SourcesFooter" fill="#777"><g class="clickable" fill="#777"><text font-size="12.6" x="15" y="581.6"><tspan x="15" y="581.58">Source: NCD RisC Database</tspan></text></g><text font-size="12.6" x="601.9" y="581.6"><tspan x="601.9" y="581.58"><a target="_blank" href="https://ourworldindata.org/obesity/" fill="#777">OurWorldInData.org/obesity/</a> • <a class="cclogo" href="http://creativecommons.org/licenses/by-sa/4.0/deed.en_US" target="_blank" fill="#777">CC BY-SA</a></tspan></text></g></g></svg>

<svg xmlns="http://www.w3.org/2000/svg" version="1.1" style="font-family: 'Helvetica Neue', Helvetica, Arial, sans-serif; font-size: 18px; background-color: white; text-rendering: optimizeLegibility; -webkit-font-smoothing: antialiased;" width="850" height="600"><g class="ChartTab"><g class="HeaderView"><g opacity="0.8" transform="translate(778, 15) scale(0.27)"><a xmlns:xlink="http://www.w3.org/1999/xlink" xlink:href="https://ourworldindata.org" target="_blank"><g><rect x="0" y="0" fill="#1B2543" width="211.2" height="130.1"/><rect x="0" y="112.2" fill="#E63912" width="211.2" height="17.9"/><g><rect x="1.2" y="12.3" fill="none" width="210.2" height="99.2"/><path fill="#FFFFFF" d="M37.8,32.2c0,12.7-7.7,19.4-17.1,19.4c-9.7,0-16.6-7.5-16.6-18.7c0-11.7,7.3-19.3,17.1-19.3 C31.3,13.7,37.8,21.3,37.8,32.2z M9.2,32.8c0,7.9,4.3,14.9,11.8,14.9c7.5,0,11.8-6.9,11.8-15.3c0-7.3-3.8-14.9-11.8-14.9 C13.1,17.5,9.2,24.8,9.2,32.8z"/><path fill="#FFFFFF" d="M62.7,43.8c0,2.7,0.1,5.1,0.2,7.2h-4.3l-0.3-4.3h-0.1c-1.3,2.1-4,4.9-8.8,4.9c-4.2,0-9.1-2.3-9.1-11.6 V24.6h4.8v14.6c0,5,1.5,8.4,5.9,8.4c3.2,0,5.5-2.2,6.3-4.4c0.3-0.7,0.4-1.6,0.4-2.5V24.6h4.8V43.8z"/><path fill="#FFFFFF" d="M67.3,32.8c0-3.1-0.1-5.8-0.2-8.2h4.2l0.2,5.2h0.2c1.2-3.5,4.1-5.8,7.3-5.8c0.5,0,0.9,0.1,1.4,0.2v4.5 c-0.5-0.1-1-0.2-1.6-0.2c-3.4,0-5.8,2.6-6.5,6.2c-0.1,0.7-0.2,1.4-0.2,2.2V51h-4.8V32.8z"/><path fill="#FFFFFF" d="M95.4,51l-9.4-36.8h5l4.4,18.6c1.1,4.6,2.1,9.2,2.7,12.7h0.1c0.6-3.7,1.8-8,3-12.8l4.9-18.5h5l4.5,18.7 c1,4.4,2,8.7,2.6,12.6h0.1c0.8-4,1.8-8.1,3-12.7l4.9-18.5h4.9L120.6,51h-5L111,31.9c-1.1-4.7-1.9-8.3-2.4-12h-0.1 c-0.7,3.7-1.5,7.3-2.8,12L100.4,51H95.4z"/><path fill="#FFFFFF" d="M154.9,37.6c0,9.8-6.8,14-13.2,14c-7.2,0-12.7-5.2-12.7-13.6c0-8.8,5.8-14,13.1-14 C149.8,24,154.9,29.5,154.9,37.6z M133.9,37.9c0,5.8,3.3,10.1,8,10.1c4.6,0,8-4.3,8-10.3c0-4.5-2.2-10.1-7.9-10.1 C136.3,27.6,133.9,32.8,133.9,37.9z"/><path fill="#FFFFFF" d="M158.2,32.8c0-3.1-0.1-5.8-0.2-8.2h4.2l0.2,5.2h0.2c1.2-3.5,4.1-5.8,7.3-5.8c0.5,0,0.9,0.1,1.4,0.2v4.5 c-0.5-0.1-1-0.2-1.6-0.2c-3.4,0-5.8,2.6-6.5,6.2c-0.1,0.7-0.2,1.4-0.2,2.2V51h-4.8V32.8z"/><path fill="#FFFFFF" d="M173.5,12.3h4.8V51h-4.8V12.3z"/><path fill="#FFFFFF" d="M206.5,12.3v31.9c0,2.3,0.1,5,0.2,6.8h-4.3l-0.2-4.6H202c-1.5,2.9-4.7,5.2-9,5.2 c-6.4,0-11.3-5.4-11.3-13.4c-0.1-8.8,5.4-14.2,11.9-14.2c4,0,6.8,1.9,8,4h0.1V12.3H206.5z M201.7,35.4c0-0.6-0.1-1.4-0.2-2 c-0.7-3.1-3.3-5.6-6.9-5.6c-5,0-7.9,4.4-7.9,10.2c0,5.3,2.6,9.8,7.8,9.8c3.2,0,6.2-2.1,7.1-5.7c0.2-0.7,0.2-1.3,0.2-2.1V35.4z"/><path fill="#FFFFFF" d="M42.8,64c0.1,1.6-1.1,2.9-3.1,2.9c-1.7,0-2.9-1.3-2.9-2.9c0-1.7,1.3-3,3-3C41.7,61,42.8,62.3,42.8,64z M37.4,97.8V71.4h4.8v26.4H37.4z"/><path fill="#FFFFFF" d="M47.5,78.6c0-2.7-0.1-5-0.2-7.1h4.3l0.3,4.4h0.1c1.3-2.5,4.4-5,8.8-5c3.7,0,9.4,2.2,9.4,11.2v15.8h-4.8 V82.6c0-4.3-1.6-7.8-6.1-7.8c-3.2,0-5.6,2.2-6.5,4.9c-0.2,0.6-0.3,1.4-0.3,2.2v15.9h-4.8V78.6z"/><path fill="#FFFFFF" d="M84,61.6c2.9-0.4,6.3-0.8,10.1-0.8c6.8,0,11.7,1.6,14.9,4.6c3.3,3,5.2,7.3,5.2,13.2c0,6-1.9,10.9-5.3,14.3 c-3.4,3.4-9.1,5.3-16.3,5.3c-3.4,0-6.2-0.2-8.6-0.4V61.6z M88.8,94.1c1.2,0.2,3,0.3,4.8,0.3c10.2,0,15.7-5.7,15.7-15.6 c0.1-8.7-4.9-14.2-14.9-14.2c-2.5,0-4.3,0.2-5.6,0.5V94.1z"/><path fill="#FFFFFF" d="M132.1,97.8l-0.4-3.3h-0.2c-1.5,2.1-4.3,3.9-8.1,3.9c-5.4,0-8.1-3.8-8.1-7.6c0-6.4,5.7-9.9,15.9-9.8v-0.5 c0-2.2-0.6-6.1-6-6.1c-2.5,0-5,0.8-6.9,2l-1.1-3.2c2.2-1.4,5.4-2.3,8.7-2.3c8.1,0,10.1,5.5,10.1,10.8v9.9c0,2.3,0.1,4.5,0.4,6.3 H132.1z M131.4,84.4c-5.3-0.1-11.2,0.8-11.2,5.9c0,3.1,2.1,4.6,4.5,4.6c3.4,0,5.6-2.2,6.4-4.4c0.2-0.5,0.3-1,0.3-1.5V84.4z"/><path fill="#FFFFFF" d="M146.6,63.9v7.6h6.9v3.7h-6.9v14.2c0,3.3,0.9,5.1,3.6,5.1c1.3,0,2.2-0.2,2.8-0.3l0.2,3.6 c-0.9,0.4-2.4,0.7-4.3,0.7c-2.2,0-4-0.7-5.2-2c-1.4-1.4-1.9-3.8-1.9-6.9V75.1h-4.1v-3.7h4.1v-6.3L146.6,63.9z"/><path fill="#FFFFFF" d="M171.4,97.8l-0.4-3.3h-0.2c-1.5,2.1-4.3,3.9-8.1,3.9c-5.4,0-8.1-3.8-8.1-7.6c0-6.4,5.7-9.9,15.9-9.8v-0.5 c0-2.2-0.6-6.1-6-6.1c-2.5,0-5,0.8-6.9,2l-1.1-3.2c2.2-1.4,5.4-2.3,8.7-2.3c8.1,0,10.1,5.5,10.1,10.8v9.9c0,2.3,0.1,4.5,0.4,6.3 H171.4z M170.7,84.4c-5.3-0.1-11.2,0.8-11.2,5.9c0,3.1,2.1,4.6,4.5,4.6c3.4,0,5.6-2.2,6.4-4.4c0.2-0.5,0.3-1,0.3-1.5V84.4z"/></g></g></a></g><a href="https://ourworldindata.org/grapher/men-weight-categories" target="_blank"><text font-size="21.60" x="15.0" y="32.3" fill="#555"><tspan x="15" y="32.279999999999994">Share of men defined as underweight, healthy, overweight and obese, World</tspan></text></a><text font-size="14.40" x="15.0" y="50.1" fill="#666"><tspan x="15" y="50.11999999999999">Share of men (% of adult population), who are underweight, healthy/normal, overweight or obese based on body</tspan><tspan x="15" y="65.96">mass index (BMI). Body Mass Index (BMI) is a person's weight divided by his or her height. The WHO define a BMI</tspan><tspan x="15" y="81.8">30.0 as 'obese'.</tspan></text></g><g class="StackedArea"><defs><clipPath id="boundsClip-2"><rect x="61.634" y="0" width="820" height="905"></rect></clipPath></defs><g class="AxisBoxView"><g class="HorizontalAxis"><text x="61.6" y="556.5" fill="#666" text-anchor="middle" font-size="16.2">1975</text><text x="145.5" y="556.5" fill="#666" text-anchor="middle" font-size="16.2">1980</text><text x="229.4" y="556.5" fill="#666" text-anchor="middle" font-size="16.2">1985</text><text x="313.2" y="556.5" fill="#666" text-anchor="middle" font-size="16.2">1990</text><text x="397.1" y="556.5" fill="#666" text-anchor="middle" font-size="16.2">1995</text><text x="480.9" y="556.5" fill="#666" text-anchor="middle" font-size="16.2">2000</text><text x="564.8" y="556.5" fill="#666" text-anchor="middle" font-size="16.2">2005</text><text x="648.7" y="556.5" fill="#666" text-anchor="middle" font-size="16.2">2010</text><text x="715.8" y="556.5" fill="#666" text-anchor="middle" font-size="16.2">2014</text></g><g class="VerticalAxis"><text x="56.63" y="535.3" fill="#666" dominant-baseline="middle" text-anchor="end" font-size="16.2">0%</text><text x="56.63" y="449" fill="#666" dominant-baseline="middle" text-anchor="end" font-size="16.2">20%</text><text x="56.63" y="362.8" fill="#666" dominant-baseline="middle" text-anchor="end" font-size="16.2">40%</text><text x="56.63" y="276.5" fill="#666" dominant-baseline="middle" text-anchor="end" font-size="16.2">60%</text><text x="56.63" y="190.3" fill="#666" dominant-baseline="middle" text-anchor="end" font-size="16.2">80%</text><text x="56.63" y="104" fill="#666" dominant-baseline="middle" text-anchor="end" font-size="16.2">100%</text></g><g class="AxisGridLines"><line x1="61.63" y1="535.3" x2="715.76" y2="535.3" stroke="#ccc"></line><line x1="61.63" y1="449" x2="715.76" y2="449" stroke="#ddd" stroke-dasharray="3,2"></line><line x1="61.63" y1="362.8" x2="715.76" y2="362.8" stroke="#ddd" stroke-dasharray="3,2"></line><line x1="61.63" y1="276.5" x2="715.76" y2="276.5" stroke="#ddd" stroke-dasharray="3,2"></line><line x1="61.63" y1="190.3" x2="715.76" y2="190.3" stroke="#ddd" stroke-dasharray="3,2"></line><line x1="61.63" y1="104" x2="715.76" y2="104" stroke="#ddd" stroke-dasharray="3,2"></line></g></g><g clip-path="url(#boundsClip-2)"><g class="HeightedLegend clickable"><g class="legendMark"><rect x="715.76" y="116.25" width="111.00500000000001" height="13.5" fill="#fff" opacity="0"></rect><text font-size="13.50" x="720.8" y="127.0" fill="#7ec7ce"><tspan x="720.76" y="127.05">Underweight</tspan></text></g><g class="legendMark"><rect x="715.76" y="249.25" width="80.9" height="13.5" fill="#fff" opacity="0"></rect><text font-size="13.50" x="720.8" y="260.1" fill="#2a939b"><tspan x="720.76" y="260.05">Healthy</tspan></text></g><g class="legendMark"><rect x="715.76" y="438.55" width="119.24000000000001" height="28.1" fill="#fff" opacity="0"></rect><text font-size="13.50" x="720.8" y="449.4" fill="#3360a9"><tspan x="720.76" y="449.35">Overweight or</tspan><tspan x="720.76" y="464.20000000000005">Obese</tspan></text></g></g><g class="Areas"><rect x="61.634" y="104" width="654.126" height="431.29999999999995" opacity="0" fill="rgba(255,255,255,0)"></rect><path stroke-linecap="round" d="M61.6 446L78.4 445.1L95.2 443.9L112 442.5L128.7 441.2L145.5 440L162.3 438.7L179 437.4L195.8 436L212.6 434.4L229.4 433.1L246.1 431.8L262.9 430.1L279.7 428.7L296.4 427.2L313.2 425.7L330 424L346.8 422.7L363.5 421.4L380.3 419.7L397.1 418L413.9 416.4L430.6 414.5L447.4 412.5L464.2 410.5L480.9 408.2L497.7 405.9L514.5 403.6L531.3 401.2L548 398.6L564.8 396L581.6 393.1L598.4 390.4L615.1 387.4L631.9 384.3L648.7 381.3L665.4 378.6L682.2 375.7L699 372.7L715.8 369.9L715.76 535.3L61.634 535.3" fill="#3360a9" fill-opacity="0.7" class="World_2-area"></path><path stroke-linecap="round" d="M61.6 163.5L78.4 163.1L95.2 162.7L112 162.3L128.7 161.9L145.5 161.8L162.3 161.4L179 160.9L195.8 160.6L212.6 160.1L229.4 160.1L246.1 159.6L262.9 159.2L279.7 158.8L296.4 158.7L313.2 158.3L330 157.9L346.8 157.5L363.5 157L380.3 156.6L397.1 156.2L413.9 155.7L430.6 154.9L447.4 154.4L464.2 153.6L480.9 153.1L497.7 152.3L514.5 151.5L531.3 150.6L548 150.1L564.8 149.3L581.6 148.4L598.4 147.6L615.1 146.7L631.9 145.8L648.7 145L665.4 144.2L682.2 143.7L699 142.8L715.8 142L715.8 369.9L699 372.7L682.2 375.7L665.4 378.6L648.7 381.3L631.9 384.3L615.1 387.4L598.4 390.4L581.6 393.1L564.8 396L548 398.6L531.3 401.2L514.5 403.6L497.7 405.9L480.9 408.2L464.2 410.5L447.4 412.5L430.6 414.5L413.9 416.4L397.1 418L380.3 419.7L363.5 421.4L346.8 422.7L330 424L313.2 425.7L296.4 427.2L279.7 428.7L262.9 430.1L246.1 431.8L229.4 433.1L212.6 434.4L195.8 436L179 437.4L162.3 438.7L145.5 440L128.7 441.2L112 442.5L95.2 443.9L78.4 445.1L61.6 446" fill="#2a939b" fill-opacity="0.7" class="World_1-area"></path><path stroke-linecap="round" d="M61.6 104L78.4 104L95.2 104L112 104L128.7 104L145.5 104L162.3 104L179 104L195.8 104L212.6 104L229.4 104L246.1 104L262.9 104L279.7 104L296.4 104L313.2 104L330 104L346.8 104L363.5 104L380.3 104L397.1 104L413.9 104L430.6 104L447.4 104L464.2 104L480.9 104L497.7 104L514.5 104L531.3 104L548 104L564.8 104L581.6 104L598.4 104L615.1 104L631.9 104L648.7 104L665.4 104L682.2 104L699 104L715.8 104L715.8 142L699 142.8L682.2 143.7L665.4 144.2L648.7 145L631.9 145.8L615.1 146.7L598.4 147.6L581.6 148.4L564.8 149.3L548 150.1L531.3 150.6L514.5 151.5L497.7 152.3L480.9 153.1L464.2 153.6L447.4 154.4L430.6 154.9L413.9 155.7L397.1 156.2L380.3 156.6L363.5 157L346.8 157.5L330 157.9L313.2 158.3L296.4 158.7L279.7 158.8L262.9 159.2L246.1 159.6L229.4 160.1L212.6 160.1L195.8 160.6L179 160.9L162.3 161.4L145.5 161.8L128.7 161.9L112 162.3L95.2 162.7L78.4 163.1L61.6 163.5" fill="#7ec7ce" fill-opacity="0.7" class="World_0-area"></path><path stroke-linecap="round" d="M61.6 446L78.4 445.1L95.2 443.9L112 442.5L128.7 441.2L145.5 440L162.3 438.7L179 437.4L195.8 436L212.6 434.4L229.4 433.1L246.1 431.8L262.9 430.1L279.7 428.7L296.4 427.2L313.2 425.7L330 424L346.8 422.7L363.5 421.4L380.3 419.7L397.1 418L413.9 416.4L430.6 414.5L447.4 412.5L464.2 410.5L480.9 408.2L497.7 405.9L514.5 403.6L531.3 401.2L548 398.6L564.8 396L581.6 393.1L598.4 390.4L615.1 387.4L631.9 384.3L648.7 381.3L665.4 378.6L682.2 375.7L699 372.7L715.8 369.9" stroke="rgb(43, 80, 141)" stroke-opacity="0.7" stroke-width="0.5" fill="none" class="World_2-border"></path><path stroke-linecap="round" d="M61.6 163.5L78.4 163.1L95.2 162.7L112 162.3L128.7 161.9L145.5 161.8L162.3 161.4L179 160.9L195.8 160.6L212.6 160.1L229.4 160.1L246.1 159.6L262.9 159.2L279.7 158.8L296.4 158.7L313.2 158.3L330 157.9L346.8 157.5L363.5 157L380.3 156.6L397.1 156.2L413.9 155.7L430.6 154.9L447.4 154.4L464.2 153.6L480.9 153.1L497.7 152.3L514.5 151.5L531.3 150.6L548 150.1L564.8 149.3L581.6 148.4L598.4 147.6L615.1 146.7L631.9 145.8L648.7 145L665.4 144.2L682.2 143.7L699 142.8L715.8 142" stroke="rgb(35, 123, 130)" stroke-opacity="0.7" stroke-width="0.5" fill="none" class="World_1-border"></path><path stroke-linecap="round" d="M61.6 104L78.4 104L95.2 104L112 104L128.7 104L145.5 104L162.3 104L179 104L195.8 104L212.6 104L229.4 104L246.1 104L262.9 104L279.7 104L296.4 104L313.2 104L330 104L346.8 104L363.5 104L380.3 104L397.1 104L413.9 104L430.6 104L447.4 104L464.2 104L480.9 104L497.7 104L514.5 104L531.3 104L548 104L564.8 104L581.6 104L598.4 104L615.1 104L631.9 104L648.7 104L665.4 104L682.2 104L699 104L715.8 104" stroke="rgb(105, 166, 172)" stroke-opacity="0.7" stroke-width="0.5" fill="none" class="World_0-border"></path></g></g></g><g style="fill: #777;" class="SourcesFooter"><g style="fill: #777;" class="clickable"><text font-size="12.60" x="15.0" y="581.6"><tspan x="15" y="581.58">Source: NCD RisC Database</tspan></text></g><text font-size="12.60" x="601.9" y="581.6"><tspan x="601.9" y="581.58"><a target='_blank' style='fill: #777;' href='https://ourworldindata.org/obesity/'>OurWorldInData.org/obesity/</a> • <a style="fill: #777;" class="cclogo" href="http://creativecommons.org/licenses/by-sa/4.0/deed.en_US" target="_blank">CC BY-SA</a></tspan></text></g></g></svg>
